packages/web-icons/svgs/trophy.svg

<svg viewBox="0 0 48 48" xmlns="http://www.w3.org/2000/svg" class="ridi_icon"><path d="M45 3h-6V1.4C38.9.6 38.3 0 37.5 0h-27C9.7 0 9.1.6 9 1.4V3H3C1.3 3 0 4.3 0 6c0 3.5.9 9.2 2.9 13.9 3.3 7.9 7.9 9.9 11.5 10.1 2.3 3.7 5.4 6 9.7 6 4.3 0 7.4-2.3 9.7-6 3.6-.2 8.2-2.2 11.5-10.1C47.1 15.2 48 9.5 48 6c0-1.7-1.3-3-3-3zM3 6h6.1c.3 7.8 1.3 15.1 3.6 20.6C5.5 24.4 3 11.5 3 6zm32.3 20.6c2.2-5.5 3.3-12.9 3.6-20.6H45c0 5.5-2.5 18.4-9.7 20.6zM27 42.3v-3.6c-1 .2-2.1.3-3 .3-.9 0-2-.1-3-.3v3.6c-4.5.8-7.8 3.3-9 5.7h24c-1.2-2.5-4.5-4.9-9-5.7z"/></svg>

<?xml version="1.0" encoding="UTF-8"?>
<svg width="48px" height="48px" viewBox="0 0 48 48" version="1.1" xmlns="http://www.w3.org/2000/svg">
  <!-- Generator: Sketch 41.2 (35397) - http://www.bohemiancoding.com/sketch -->
  <title>trophy</title>
  <desc>Created with Sketch.</desc>
  <defs></defs>
  <g id="Page-1" stroke="none" stroke-width="1" fill="none" fill-rule="evenodd">
    <g id="trophy" fill="#000000">
      <g id="레이어_1">
        <path d="M45,3 L39,3 L39,1.4 C38.9,0.6 38.3,0 37.5,0 L10.5,0 C9.7,0 9.1,0.6 9,1.4 L9,3 L3,3 C1.3,3 0,4.3 0,6 C0,9.5 0.9,15.2 2.9,19.9 C6.2,27.8 10.8,29.8 14.4,30 C16.7,33.7 19.8,36 24.1,36 C28.4,36 31.5,33.7 33.8,30 C37.4,29.8 42,27.8 45.3,19.9 C47.1,15.2 48,9.5 48,6 C48,4.3 46.7,3 45,3 L45,3 Z M3,6 L9.1,6 C9.4,13.8 10.4,21.1 12.7,26.6 C5.5,24.4 3,11.5 3,6 Z M35.3,26.6 C37.5,21.1 38.6,13.7 38.9,6 L45,6 C45,11.5 42.5,24.4 35.3,26.6 Z M27,42.3 L27,38.7 C26,38.9 24.9,39 24,39 C23.1,39 22,38.9 21,38.7 L21,42.3 C16.5,43.1 13.2,45.6 12,48 L36,48 C34.8,45.5 31.5,43.1 27,42.3 Z" id="Shape"></path>
      </g>
    </g>
  </g>
</svg>
